icons/documents-files.svg

<?xml version="1.0" encoding="UTF-8"?><svg id="uuid-af5847f3-1380-4f4a-a7b0-0e94aaf0d089" xmlns="http://www.w3.org/2000/svg" viewBox="0 0 50 50"><path d="M44.14,.53H11.57c-.28,0-.5,.22-.5,.5v1.67h-2.32c-.28,0-.5,.22-.5,.5v1.45h-2.38c-.28,0-.5,.22-.5,.5V48.47c0,.28,.22,.5,.5,.5H38.43c.28,0,.5-.22,.5-.5v-1.45h2.38c.28,0,.5-.22,.5-.5v-1.67h2.32c.28,0,.5-.22,.5-.5V1.03c0-.28-.22-.5-.5-.5Zm-6.21,47.44H6.36V5.65H25.59v11.84c0,.28,.22,.5,.5,.5h11.84v29.98Zm-11.34-30.98V6.36l10.64,10.63h-10.64Zm14.23,29.03h-1.88V17.49s0-.04-.01-.06c0-.02,0-.04-.01-.06-.02-.08-.06-.16-.12-.23L26.44,4.8c-.06-.06-.14-.1-.23-.12-.02,0-.04,0-.06-.01-.02,0-.04-.01-.07-.01H9.24v-.95h31.57V46.02Zm2.82-2.17h-1.82V3.2c0-.28-.22-.5-.5-.5H12.07V1.53h31.57V43.85Z"/></svg>

<svg id="ee59085e-b7c0-416a-86e7-fff89d24dbb6" data-name="ICONS" xmlns="http://www.w3.org/2000/svg" viewBox="0 0 50 50"><path d="M44.14.53H11.57a.5.5,0,0,0-.5.5V2.7H8.74a.5.5,0,0,0-.5.5V4.65H5.86a.5.5,0,0,0-.5.5V48.47a.51.51,0,0,0,.5.5H38.43a.5.5,0,0,0,.5-.5V47h2.38a.5.5,0,0,0,.5-.5V44.85h2.33a.5.5,0,0,0,.5-.5V1A.51.51,0,0,0,44.14.53ZM37.93,48H6.36V5.65H25.59V17.49a.5.5,0,0,0,.5.5H37.93ZM26.59,17V6.36L37.22,17ZM40.81,46H38.93V17.49s0,0,0-.06,0,0,0-.07a.5.5,0,0,0-.13-.22L26.44,4.8a.48.48,0,0,0-.23-.13h-17v-1H40.81Zm2.83-2.17H41.81V3.2a.5.5,0,0,0-.5-.5H12.07V1.53H43.64Z"/></svg>
